src/assets/icons/fullscreen.svg

<svg widh="100%" height="100%" viewBox="0 0 24 24" fill="current"
  xmlns="http://www.w3.org/2000/svg">
  <path d="M14.016 5.01601H18.985V9.98501H17.016V6.98501H14.016V5.01601V5.01601ZM17.016 17.016V14.016H18.985V18.985H14.016V17.016H17.016ZM5.016 9.98401V5.01501H9.985V6.98401H6.985V9.98401H5.016V9.98401ZM6.984 14.016V17.016H9.984V18.985H5.015V14.016H6.984V14.016Z"/>
</svg>

<svg xmlns="http://www.w3.org/2000/svg" fill="currentColor" viewBox="0 0 24 24">
  <path d="M14.016 5.016h4.969v4.969h-1.969v-3h-3V5.016Zm3 12v-3h1.969v4.969h-4.969v-1.969h3Zm-12-7.032V5.015h4.969v1.969h-3v3H5.016Zm1.968 4.032v3h3v1.969H5.015v-4.969h1.969Z"/>
</svg>
